_includes/icons/ios-sound.svg

<svg fill="#666" height="50" viewBox="0 0 50 50" width="50" xmlns="http://www.w3.org/2000/svg"><path d="m7 2v46h36v-32.414062l-13.585937-13.585938zm2 2h19v13h13v29h-32zm21 1.414063 9.585938 9.585937h-9.585938zm-5 15.003906c-.5625 0-.941406.367187-.941406.914062v8.984375c0 1.101563-.378906 2.015625-2.457031 2.015625-2.929688 0-4.15625.644532-4.15625 2.476563 0 1.191406.285156 3.023437 4.15625 3.023437 3.589843 0 4.34375-2.65625 4.34375-4.03125v-8.617187c3.398437 0 3.023437 1.285156 5.570312 1.558594.566406.089843 1.042969-.273438 1.042969-.824219v-2.75c0-.460938-.382813-.917969-.855469-.917969-2.832031-.273437-2.265625-1.832031-5.757812-1.832031z"/></svg>

<svg xmlns="http://www.w3.org/2000/svg" viewBox="0 0 50 50" width="50" height="50" fill="#666"><path d="M 7 2 L 7 48 L 43 48 L 43 15.585938 L 29.414063 2 Z M 9 4 L 28 4 L 28 17 L 41 17 L 41 46 L 9 46 Z M 30 5.414063 L 39.585938 15 L 30 15 Z M 25 20.417969 C 24.4375 20.417969 24.058594 20.785156 24.058594 21.332031 L 24.058594 30.316406 C 24.058594 31.417969 23.679688 32.332031 21.601563 32.332031 C 18.671875 32.332031 17.445313 32.976563 17.445313 34.808594 C 17.445313 36 17.730469 37.832031 21.601563 37.832031 C 25.191406 37.832031 25.945313 35.175781 25.945313 33.800781 L 25.945313 25.183594 C 29.34375 25.183594 28.96875 26.46875 31.515625 26.742188 C 32.082031 26.832031 32.558594 26.46875 32.558594 25.917969 L 32.558594 23.167969 C 32.558594 22.707031 32.175781 22.25 31.703125 22.25 C 28.871094 21.976563 29.4375 20.417969 25.945313 20.417969 Z"/></svg>
